images/src/ic_cart.svg

<svg
 xmlns="http://www.w3.org/2000/svg"
 xmlns:xlink="http://www.w3.org/1999/xlink"
 width="20px" height="24px">
<path fill-rule="evenodd"  fill="currentColor"
 d="M18.569,6.670 C18.536,6.284 18.228,5.987 17.858,5.987 L14.289,5.987 L14.289,4.487 C14.289,2.004 12.367,-0.015 10.005,-0.015 C7.643,-0.015 5.721,2.004 5.721,4.487 L5.721,5.987 L2.152,5.987 C1.782,5.987 1.474,6.284 1.441,6.670 L0.013,23.178 C-0.005,23.388 0.061,23.596 0.197,23.751 C0.332,23.907 0.523,23.996 0.724,23.996 L19.286,23.996 C19.487,23.996 19.678,23.907 19.813,23.751 C19.947,23.596 20.015,23.388 19.997,23.178 L18.569,6.670 ZM7.149,4.487 C7.149,2.831 8.431,1.485 10.005,1.485 C11.579,1.485 12.861,2.831 12.861,4.487 L12.861,5.987 L7.149,5.987 L7.149,4.487 ZM1.507,22.495 L2.804,7.488 L5.721,7.488 L5.721,9.197 C5.296,9.457 5.008,9.936 5.008,10.490 C5.008,11.318 5.647,11.990 6.435,11.990 C7.224,11.990 7.863,11.318 7.863,10.490 C7.863,9.936 7.575,9.457 7.149,9.197 L7.149,7.488 L12.861,7.488 L12.861,9.197 C12.435,9.457 12.147,9.935 12.147,10.490 C12.147,11.318 12.787,11.990 13.575,11.990 C14.362,11.990 15.003,11.318 15.003,10.490 C15.003,9.936 14.714,9.457 14.289,9.197 L14.289,7.488 L17.206,7.488 L18.504,22.495 L1.507,22.495 Z"/>
</svg>

<svg xmlns="http://www.w3.org/2000/svg" viewBox="0 0 19.99 24.01"><path d="M18.57,6.67A.72.72,0,0,0,17.86,6H14.29V4.49A4.39,4.39,0,0,0,10,0a4.4,4.4,0,0,0-4.29,4.5V6H2.15a.72.72,0,0,0-.71.68L0,23.18a.78.78,0,0,0,.19.57A.67.67,0,0,0,.72,24H19.29a.67.67,0,0,0,.52-.25.78.78,0,0,0,.19-.57ZM7.15,4.49a2.93,2.93,0,0,1,2.86-3,2.93,2.93,0,0,1,2.85,3V6H7.15Zm-5.64,18,1.29-15H5.72V9.2A1.52,1.52,0,0,0,5,10.49,1.46,1.46,0,0,0,6.43,12a1.47,1.47,0,0,0,1.43-1.5A1.52,1.52,0,0,0,7.15,9.2V7.49h5.71V9.2a1.52,1.52,0,0,0-.71,1.29,1.43,1.43,0,1,0,2.85,0,1.52,1.52,0,0,0-.71-1.29V7.49h2.92l1.29,15Z" transform="translate(-0.01 0.01)" fill-rule="evenodd" fill="currentColor" /></svg>
